build/images/svgs/home_banner/UserMenu.svg

<svg xmlns="http://www.w3.org/2000/svg" viewBox="0 0 50 50" enable-background="new 0 0 50 50" style="fill: #fff; opacity:.2;">
    <path style="text-indent:0;text-align:start;line-height:normal;text-transform:none;block-progression:tb;-inkscape-font-specification:Bitstream Vera Sans" d="M 19.875 3.3125 C 15.18258 3.4179476 12.213416 5.3153925 10.9375 8.25 C 9.722401 11.044728 9.9769077 14.561897 10.84375 18.21875 C 10.378281 18.765687 9.997582 19.533484 10.09375 20.6875 L 10.09375 20.71875 L 10.09375 20.75 C 10.260194 21.970588 10.627277 22.827497 11.09375 23.4375 C 11.321954 23.735921 11.654456 23.740973 11.9375 23.90625 C 12.105397 24.986916 12.427694 26.054976 12.875 26.9375 C 13.128614 27.437874 13.381049 27.878756 13.65625 28.25 C 13.782232 28.419949 13.962772 28.515284 14.09375 28.65625 C 14.10576 29.962866 14.1562 30.95883 14 32.28125 C 13.698014 33.03913 12.950103 33.643691 11.75 34.25 C 10.497424 34.882819 8.854772 35.466518 7.1875 36.1875 C 5.520228 36.908482 3.826495 37.77573 2.46875 39.15625 C 1.111005 40.53677 0.13699273 42.444232 0 44.9375 L -0.0625 46 L 1 46 L 39 46 L 40.0625 46 L 40 44.9375 C 39.863107 42.446055 38.913967 40.537516 37.5625 39.15625 C 36.211033 37.774984 34.511883 36.908855 32.84375 36.1875 C 31.175617 35.466145 29.524765 34.885197 28.25 34.25 C 27.014894 33.634564 26.240663 33.003799 25.90625 32.21875 C 25.829519 30.893899 25.81297 29.87936 25.8125 28.625 C 25.930486 28.490625 26.105607 28.407929 26.21875 28.25 C 26.485664 27.877433 26.754883 27.434544 27 26.9375 C 27.431995 26.061511 27.765941 24.990021 27.96875 23.9375 C 28.289793 23.774313 28.657315 23.763031 28.90625 23.4375 C 29.387755 22.80784 29.669748 21.914027 29.78125 20.6875 C 29.86934 19.630463 29.567276 18.860912 29.09375 18.28125 C 29.614087 16.678163 30.229701 14.117068 30.03125 11.5 C 29.92229 10.063091 29.542308 8.6308269 28.6875 7.4375 C 27.915843 6.3602537 26.663622 5.6201187 25.09375 5.28125 C 24.03533 3.8674576 22.111401 3.3125 19.90625 3.3125 L 19.875 3.3125 z M 19.90625 5.3125 C 19.91874 5.3125 19.92507 5.3124552 19.9375 5.3125 C 21.934359 5.3197 23.209545 5.8815416 23.625 6.59375 L 23.875 7.03125 L 24.375 7.09375 C 25.748239 7.2868617 26.504808 7.8152019 27.0625 8.59375 C 27.620192 9.3722981 27.94021 10.455659 28.03125 11.65625 C 28.21333 14.057432 27.519634 16.876276 27.0625 18.15625 L 26.75 19 L 27.53125 19.40625 C 27.523543 19.434675 27.85239 19.765997 27.8125 20.5 C 27.811 20.51632 27.8141 20.51519 27.8125 20.53125 C 27.72051 21.473313 27.478171 22.002103 27.3125 22.21875 C 27.144005 22.43909 27.060417 22.40625 27.09375 22.40625 L 26.21875 22.40625 L 26.125 23.25 C 25.996056 24.152608 25.628515 25.200337 25.21875 26.03125 C 25.013867 26.446706 24.776836 26.838192 24.59375 27.09375 C 24.410664 27.349308 24.229253 27.48507 24.3125 27.4375 L 23.8125 27.71875 L 23.8125 28.3125 C 23.8125 29.8125 23.8045 30.934021 23.90625 32.5625 L 23.90625 32.71875 L 23.96875 32.84375 C 24.554768 34.373908 25.88414 35.335197 27.34375 36.0625 C 28.80336 36.789803 30.461883 37.352605 32.03125 38.03125 C 33.600617 38.709895 35.067092 39.481266 36.125 40.5625 C 36.968388 41.424485 37.475983 42.574326 37.75 44 L 2.25 44 C 2.5253473 42.575424 3.0266515 41.425079 3.875 40.5625 C 4.93913 39.48052 6.429772 38.710268 8 38.03125 C 9.570228 37.352232 11.211951 36.792181 12.65625 36.0625 C 14.100549 35.332819 15.4111 34.358799 15.9375 32.8125 L 15.96875 32.71875 L 16 32.625 C 16.212085 30.928317 16.09375 29.768056 16.09375 28.3125 L 16.09375 27.71875 L 15.59375 27.4375 C 15.66809 27.47998 15.471674 27.319381 15.28125 27.0625 C 15.090826 26.805619 14.865136 26.443376 14.65625 26.03125 C 14.238478 25.206997 13.86378 24.17906 13.78125 23.3125 L 13.71875 22.40625 L 12.875 22.40625 C 12.840129 22.389375 12.748015 22.33875 12.65625 22.21875 C 12.478664 21.986522 12.230786 21.451164 12.09375 20.53125 C 12.09205 20.5112 12.09475 20.51956 12.09375 20.5 C 12.09155 20.48438 12.09595 20.4846 12.09375 20.46875 C 12.07771 19.710532 12.548752 19.290415 12.46875 19.34375 L 13.03125 18.9375 L 12.875 18.25 C 11.952145 14.607151 11.807166 11.302893 12.78125 9.0625 C 13.752632 6.8283223 15.722691 5.4141553 19.90625 5.3125 z M 33 16 L 33 18 L 50 18 L 50 16 L 33 16 z M 31 24 L 31 26 L 50 26 L 50 24 L 31 24 z M 33 32 L 33 34 L 50 34 L 50 32 L 33 32 z" color="#000" overflow="visible" enable-background="accumulate" font-family="Bitstream Vera Sans"/>
</svg>

<svg xmlns="http://www.w3.org/2000/svg" viewBox="0 0 50 50" fill="#fff" opacity=".2"><path style="text-indent:0;text-align:start;line-height:normal;text-transform:none;block-progression:tb;-inkscape-font-specification:Bitstream Vera Sans" d="M19.875 3.313c-4.692.105-7.662 2.002-8.938 4.937-1.215 2.795-.96 6.312-.093 9.969-.466.547-.846 1.314-.75 2.468v.063c.166 1.22.533 2.077 1 2.688.228.298.56.303.844.468.167 1.08.49 2.149.937 3.032.254.5.506.94.781 1.312.126.17.307.265.438.406.012 1.307.062 2.303-.094 3.625-.302.758-1.05 1.363-2.25 1.969-1.253.633-2.895 1.217-4.563 1.938-1.667.72-3.36 1.588-4.718 2.968S.137 42.444 0 44.938L-.063 46H40.064L40 44.937c-.137-2.49-1.086-4.4-2.438-5.78-1.351-1.382-3.05-2.248-4.718-2.97-1.668-.72-3.32-1.302-4.594-1.937-1.235-.615-2.01-1.246-2.344-2.031a57.906 57.906 0 0 1-.093-3.594c.117-.134.293-.217.406-.375.267-.373.536-.815.781-1.313.432-.875.766-1.947.969-3 .32-.163.688-.174.937-.5.482-.63.764-1.523.875-2.75.088-1.057-.214-1.826-.687-2.406.52-1.603 1.136-4.164.937-6.781-.109-1.437-.489-2.87-1.343-4.063-.772-1.077-2.024-1.817-3.594-2.156-1.059-1.414-2.983-1.968-5.188-1.968h-.031zm.031 2h.032c1.996.007 3.272.569 3.687 1.28l.25.438.5.063c1.373.193 2.13.721 2.688 1.5.557.778.877 1.862.968 3.062.182 2.401-.511 5.22-.968 6.5L26.75 19l.781.406c-.007.029.321.36.282 1.094-.002.016.001.015 0 .031-.092.942-.335 1.471-.5 1.688-.169.22-.253.187-.22.187h-.874l-.094.844c-.129.903-.496 1.95-.906 2.781a8.077 8.077 0 0 1-.625 1.063c-.183.255-.365.391-.282.343l-.5.282v.593c0 1.5-.008 2.622.094 4.25v.157l.063.125c.586 1.53 1.915 2.491 3.375 3.218 1.46.728 3.118 1.29 4.687 1.97 1.57.678 3.036 1.45 4.094 2.53.843.862 1.351 2.012 1.625 3.438H2.25c.275-1.425.777-2.575 1.625-3.438C4.939 39.481 6.43 38.71 8 38.032c1.57-.68 3.212-1.24 4.656-1.97 1.445-.73 2.755-1.703 3.281-3.25l.032-.093.031-.094c.212-1.697.094-2.857.094-4.313v-.593l-.5-.282c.074.043-.122-.118-.313-.375a7.448 7.448 0 0 1-.625-1.03c-.418-.825-.792-1.853-.875-2.72l-.062-.906h-.844a.624.624 0 0 1-.219-.187c-.177-.232-.425-.768-.562-1.688-.002-.02 0-.011 0-.031-.002-.016.002-.015 0-.031-.016-.758.455-1.179.375-1.125l.562-.407-.156-.687c-.923-3.643-1.068-6.947-.094-9.188.972-2.234 2.942-3.648 7.125-3.75zM33 16v2h17v-2H33zm-2 8v2h19v-2H31zm2 8v2h17v-2H33z" color="#000" overflow="visible" font-family="Bitstream Vera Sans"/></svg>
